dist/images/icons/recline.svg

<svg width="24" height="24" fill="none" xmlns="http://www.w3.org/2000/svg"><path d="M7.59 5.41c-.78-.78-.78-2.05 0-2.83.78-.78 2.05-.78 2.83 0 .78.78.78 2.05 0 2.83-.79.79-2.05.79-2.83 0zM6 16V8c0-.55-.45-1-1-1s-1 .45-1 1v8c0 2.76 2.24 5 5 5h5c.55 0 1-.45 1-1s-.45-1-1-1H9c-1.66 0-3-1.34-3-3zm13.28 3.35l-3.77-3.77c-.37-.37-.88-.58-1.41-.58h-2.6v-3.68c1.09.89 2.66 1.7 4.2 2.02.67.14 1.3-.36 1.3-1.04 0-.53-.39-.96-.92-1.05-1.42-.24-2.88-1.01-3.75-1.97l-1.4-1.55c-.19-.21-.43-.38-.69-.5-.29-.14-.62-.23-.96-.23h-.03C8.01 7 7 8.01 7 9.25V15c0 1.66 1.34 3 3 3h5.07l2.78 2.78c.39.39 1.04.39 1.43 0 .4-.39.4-1.03 0-1.43z" fill="#121"/></svg>

<svg width="24" height="24" viewBox="0 0 24 24" fill="none" xmlns="http://www.w3.org/2000/svg">
<path d="M7.59 5.41C6.81 4.63 6.81 3.36 7.59 2.58C8.37 1.8 9.64 1.8 10.42 2.58C11.2 3.36 11.2 4.63 10.42 5.41C9.63 6.2 8.37 6.2 7.59 5.41ZM6 16V8C6 7.45 5.55 7 5 7C4.45 7 4 7.45 4 8V16C4 18.76 6.24 21 9 21H14C14.55 21 15 20.55 15 20C15 19.45 14.55 19 14 19H9C7.34 19 6 17.66 6 16ZM19.28 19.35L15.51 15.58C15.14 15.21 14.63 15 14.1 15H11.5V11.32C12.59 12.21 14.16 13.02 15.7 13.34C16.37 13.48 17 12.98 17 12.3C17 11.77 16.61 11.34 16.08 11.25C14.66 11.01 13.2 10.24 12.33 9.27999L10.93 7.73C10.74 7.52 10.5 7.35 10.24 7.23C9.95 7.09 9.62 7 9.28 7H9.25C8.01 7 7 8.01 7 9.25V15C7 16.66 8.34 18 10 18H15.07L17.85 20.78C18.24 21.17 18.89 21.17 19.28 20.78C19.68 20.39 19.68 19.75 19.28 19.35Z" fill="#112211"/>
</svg>
